X: 32023
T: Peg McGrath's
R: reel
M: 4/4
K: Dmajor
~f3e d2dB|AF~F2 ABde|~f3e dBAF|ABde fdde|
~f3e d2dB|AF~F2 ABdf|afef dBAF|ABde fdd2||
fa~a2 fdfa|bfaf edBd|~f3d edBd|ABde fdde|
fa~a2 fdfa|bfaf edBd|A2AF ABdf|afeg fdd2||

